!!!COM:	la Rue, Pierre de
!!!CDT:	~1452///-1518/11/20
!!!OPR:	Missa De Sancto Antonio
!!!ONM:	4
!!!OTL:	Sanctus
!!!AGN:	Mass; Sanctus
!!!SCT:	Rue1012d
!!!SCA:	Rue1012d
!!!voices:	4
!!!voices-OPR:	4
**kern	**kern	**kern	**kern
*staff4	*staff3	*staff2	*staff1
*Ivox	*Ivox	*Ivox	*Ivox
*I"Bassus	*I"Tenor	*I"Contra	*I"Discantus
*I'B	*I'T	*I'C	*I'D
*>[A,B,C,D,E,C]	*>[A,B,C,D,E,C]	*>[A,B,C,D,E,C]	*>[A,B,C,D,E,C]
*>A	*>A	*>A	*>A
*clefF4	*clefGv2	*clefGv2	*clefG2
*k[]	*k[]	*k[]	*k[]
*M3/1	*M3/1	*M3/1	*M3/1
*met(O)	*met(O)	*met(O)	*met(O)
!!section: Sanctus
!!!OMD: Sanctus
=1-	=1-	=1-	=1-
0E	0.r	0B	0.r
1F	.	1d	.
=2	=2	=2	=2
0E	0.r	2e\	0.r
.	.	1g	.
.	.	4f\	.
.	.	4e\	.
1G	.	1d	.
=3	=3	=3	=3
2A\	0.r	1c	0e
1c	.	.	.
.	.	1r	.
4B\	.	.	.
4A\	.	.	.
1B	.	1d	1g
=4	=4	=4	=4
0A	0.r	2e\	1a
.	.	2.f\	.
.	.	.	1.cc
.	.	4e\	.
.	.	2c\	.
1A	.	2e\	.
.	.	2f\	4b\
.	.	.	4a/
=5	=5	=5	=5
0G	0.r	2g\	0b
.	.	4f\	.
.	.	4e\	.
.	.	1d	.
2.A\	.	[1c	2.e/
4G\	.	.	4f/
=6	=6	=6	=6
2E\	0.r	1c]	2g/
2.F\	.	.	2.a/
.	.	1c	.
4G\	.	.	4g/
2A\	.	.	2e/
1D	.	[1d	2f/
.	.	.	2a/
=7	=7	=7	=7
1r	0.r	1d]	2b\
.	.	.	2.dd\
1F	.	1d	.
.	.	.	8cc\L
.	.	.	8b\J
.	.	.	2a/
2.E\	.	2.e\	[1g
4F\	.	4d\	.
=8	=8	=8	=8
2G\	0.r	2B\	1g]
2C/	.	2.c\	.
1E	.	.	1g
.	.	4d\	.
.	.	2e\	.
2F\	.	2.A/	2a/
[2A\	.	.	[2cc\
.	.	4B\	.
=9	=9	=9	=9
2A\]	0.r	2c\	2cc\]
2.G\	.	2.d\	2.b\
4A\	.	4c\	4a/
2F\	.	2A/	1a
1E	.	1B	.
.	.	.	2g#i/
=10	=10	=10	=10
0A	[0.c	0A	0.a
1r	.	1r	.
=11	=11	=11	=11
0.A	0.c]	0a	1r
.	.	.	1r
.	.	[1e	[1ee
=12	=12	=12	=12
0.E	[0.B	1e]	0ee]
.	.	0g	.
.	.	.	[1b
=13	=13	=13	=13
0.G	0.B]	1.d	1b]
.	.	.	0dd
.	.	4e\	.
.	.	4f\	.
.	.	1g	.
=14	=14	=14	=14
0C	0c	2g\	1ee
.	.	2.e\	.
.	.	.	2ee\
.	.	4f\	.
.	.	2g\	2.cc\
1r	1A	1c	.
.	.	.	4dd\
.	.	.	2ee\
=15	=15	=15	=15
1.G	0B	1d	2dd\
.	.	.	1b
.	.	2B\	.
2E\	.	1B	4a/
.	.	.	4g/
1F	1d	.	1a
.	.	2A/	.
=16	=16	=16	=16
0E	[0.e	1.B	0g
.	.	2G/	.
1E	.	1G	1g
=17	=17	=17	=17
1C	0e]	0g	2.cc\
.	.	.	4dd\
2C/	.	.	2ee\
2.C/	.	.	1ee
.	1e	1g	.
4D\	.	.	.
4E\	.	.	4dd\
4F\	.	.	4cc\
=18	=18	=18	=18
1G	2.d\	1g	2.b\
.	4c\	.	4a/
2G\	4d\	2G/	4b\
.	4e\	.	4cc\
1D	2.f\	1A	2.dd\
.	4e\	.	4cc\
2D\	4d\	2A/	4b\
.	4c\	.	4a/
=19	=19	=19	=19
0G	2d\	1.B	2g/
.	2G/	.	2ee\
.	2B\	.	2dd\
.	2c\	2G/	2.cc\
1G	1d	1g	.
.	.	.	4b\
.	.	.	2b\
=20	=20	=20	=20
2C/	0c	2e\	1cc
2.c\	.	1a	.
.	.	.	1r
4B\	.	.	.
4A\	.	2.g\	.
4G\	.	.	.
1A	1c	.	1cc
.	.	4e\	.
.	.	2f\	.
=21	=21	=21	=21
0G	0B	2r	1dd
.	.	2g\	.
.	.	2d\	2dd\
.	.	1g	1b
1G	[1d	.	.
.	.	2g\	4a/
.	.	.	4g/
=22	=22	=22	=22
1D	0.d]	2.f\	1a
.	.	4e\	.
1r	.	2f\	2a/
.	.	1g	2.b\
1D	.	.	.
.	.	.	4cc\
.	.	2f#i\	2a/
=23	=23	=23	=23
2.G\	1d	0g	2.g/
4F\	.	.	4a/
4E\	2d\	.	2b\
4D\	.	.	.
1C	2.e\	.	2.cc\
.	.	1c	.
.	4d\	.	4b\
[2F\	4c\	.	4a/
.	4B\	.	4g/
=24	=24	=24	=24
2F\]	2A/	1r	2f/
1E	2G/	.	1g
.	2B\	2r	.
4D\	2c\	1c	4f/
4C/	.	.	4e/
1G	1d	.	1d
.	.	2B\	.
=25	=25	=25	=25
0C	0e	2c\	0.c
.	.	4B\	.
.	.	4A/	.
.	.	0G	.
2r	2r	.	.
2G\	2e\	.	.
=26	=26	=26	=26
2A\	2f\	2r	0.r
2G\	2e\	2B\	.
2A\	2f\	2c\	.
2E\	1e	1B	.
1F	.	.	.
.	2d\	2A/	.
=27	=27	=27	=27
2E\	0.e	2B\	2r
2G\	.	2e\	2b\
2A\	.	2c\	2cc\
2G\	.	2.g\	2b\
4A\	.	.	4cc\
4G\	.	4f\	4b\
4F\	.	[2e\	4a/
4E\	.	.	4g/
=28	=28	=28	=28
1F	1r	2e\]	1a
.	.	2d\	.
0E	1r	2.e\	1g
.	.	8d\L	.
.	.	8c\J	.
.	[1e	4B\	2r
.	.	4A/	.
.	.	2B\	2b\
=29	=29	=29	=29
1AA	1e]	1.A	2cc\
.	.	.	2.ee\
1r	1c	.	.
.	.	.	4dd\
.	.	2G/	4cc\
.	.	.	4b\
1r	1d	1F	1a
=30	=30	=30	=30
2r	1e	1E	2r
2E\	.	.	2g/
2F\	2d\	1r	2a/
2.A\	2c\	.	2.cc\
.	1A	1c	.
4G\	.	.	4b\
4F\	.	.	4a/
4E\	.	.	4g/
=31	=31	=31	=31
2D\	2B\	2d\	2f/
2C/	1c	2e\	1e
1F	.	2c\	.
.	4B\	2d\	2.a/
.	4A/	.	.
1E	1B	1e	.
.	.	.	4g#i/
.	.	.	2g#i/
=32	=32	=32	=32
0.AAl	0.Al	0.el	0.al
!!LO:LB:i:g=z
=33||	=33||	=33||	=33||
*>B	*>B	*>B	*>B
*clefF4	*clefGv2	*clefGv2	*clefG2
*k[]	*k[]	*k[]	*k[]
*M3/1	*M3/1	*M3/1	*M3/1
*met(O|)	*met(O|)	*met(O|)	*met(O|)
!!section: Pleni sunt celi
!!!OMD: Pleni sunt celi
0.r	0.r	0.r	0e
.	.	.	1g
=34	=34	=34	=34
0.r	0.r	0A	2.a/
.	.	.	4b\
.	.	.	2cc\
.	.	.	1cc
.	.	1c	.
.	.	.	4b\
.	.	.	4a/
=35	=35	=35	=35
0.r	0.r	2d\	2b\
.	.	1f	1a
.	.	4e\	2dd\
.	.	4d\	.
.	.	2e\	2cc\
.	.	[2d\	[2dd\
=36	=36	=36	=36
0.r	0.r	2d\]	2dd\]
.	.	2g\	4cc\
.	.	.	4b\
.	.	2f\	2a/
.	.	1g	2g/
.	.	.	2b\
.	.	4f\	2cc\
.	.	4e\	.
=37	=37	=37	=37
0.r	0.r	2d\	2dd\
.	.	2c\	1ee
.	.	2e\	.
.	.	2f\	4dd\
.	.	.	4cc\
.	.	2g\	2b\
.	.	[2a\	2cc\
=38	=38	=38	=38
0.r	0.r	2a\]	1a
.	.	4g\	.
.	.	4f\	.
.	.	2e\	2g/
.	.	2f\	1a
.	.	1d	.
.	.	.	4g/
.	.	.	4f/
=39	=39	=39	=39
0E	0.r	2c\	1e
.	.	2B\	.
.	.	2e\	1r
.	.	4d\	.
.	.	4c\	.
1G	.	1B	1b
=40	=40	=40	=40
1A	0.r	1A	1cc
2B\	.	1r	2b\
2c\	.	.	2.a/
2.d\	.	1r	.
.	.	.	8b\L
.	.	.	8cc\J
.	.	.	2dd\
4c\	.	.	.
=41	=41	=41	=41
2A\	0.r	0.r	2cc\
2G\	.	.	2.b\
2A\	.	.	.
.	.	.	4a/
2c\	.	.	1a
1B	.	.	.
.	.	.	2g#i/
=42	=42	=42	=42
0.A	0.r	2.e\	0a
.	.	4c\	.
.	.	2f\	.
.	.	2.e\	.
.	.	.	2.ee\
.	.	4c\	.
.	.	2c\	.
.	.	.	4cc\
=43	=43	=43	=43
1r	0.r	2d\	2ff\
.	.	2c\	2.ee\
2.A\	.	1A	.
.	.	.	4cc\
.	.	.	2cc\
4F\	.	.	.
2B-\	.	2r	2dd\
[2A\	.	2e\	2cc\
=44	=44	=44	=44
4A\]	0.r	1f	1a
4F\	.	.	.
2F\	.	.	.
2G\	.	2e\	2b\
2F\	.	1f	1a
1D	.	.	.
.	.	4e\	[2dd\
.	.	4d\	.
=45	=45	=45	=45
2r	0.r	1e	4dd\]
.	.	.	4cc\
2A\	.	.	2cc\
2.B\	.	1d	2dd\
.	.	.	2a/
4c\	.	.	.
4d\	.	1r	2.b\
4c\	.	.	.
4B\	.	.	.
4A\	.	.	4cc\
=46	=46	=46	=46
1G	0.r	2r	4dd\
.	.	.	4cc\
.	.	2d\	4b\
.	.	.	4a/
1r	.	2.e\	2.g/
.	.	4f\	4a/
2r	.	4g\	4b\
.	.	4f\	4a/
2G\	.	4e\	4g/
.	.	4d\	4f/
=47	=47	=47	=47
2.A\	0.r	2.c\	1e
4B\	.	4d\	.
4c\	.	4e\	2r
4B\	.	4d\	.
4A\	.	4c\	2g/
4G\	.	4B\	.
2.F\	.	1A	2.a/
4G\	.	.	4b\
=48	=48	=48	=48
4A\	0.r	2r	4cc\
4G\	.	.	4b\
4F\	.	2c\	4a/
4E\	.	.	4g/
1D	.	2.d\	2.f/
.	.	4e\	4g/
2D\	.	4f\	4a/
.	.	4e\	4g/
[2G\	.	4d\	4f/
.	.	4c\	4e/
=49	=49	=49	=49
4G\]	0.r	2B\	2d/
4F\	.	.	.
2E\	.	2G/	1g
1D	.	1A	.
.	.	.	2f#i/
2r	.	[1G	[1g
[2G\	.	.	.
=50	=50	=50	=50
4G\]	0.r	1G]	2g/]
4A\	.	.	.
4B\	.	.	4f/
4c\	.	.	4e/
2d\	.	1G	1d
2B\	.	.	.
2c\	.	2r	1c
[2A\	.	[2c\	.
=51	=51	=51	=51
2A\]	0.r	4c\]	0.r
.	.	4d\	.
4G\	.	4e\	.
4F\	.	4f\	.
1E	.	2g\	.
.	.	2e\	.
2D\	.	1f	.
[2A\	.	.	.
=52	=52	=52	=52
2A\]	0.r	2e\	1r
2.B\	.	2.d\	.
.	.	.	2r
4G\	.	4B\	.
2.c\	.	1e	2.g/
4B\	.	.	4a/
[2A\	.	4d\	4b\
.	.	4c\	4cc\
=53	=53	=53	=53
2A\]	0.r	1B	2dd\
2G\	.	.	2b\
1A	.	2r	2.cc\
.	.	2A/	.
.	.	.	4b\
2E\	.	2G/	2b\
2F\	.	2A/	[2a/
=54	=54	=54	=54
1E	0.r	1B	2a/]
.	.	.	2g#i/
0A	.	2A/	2a/
.	.	2.e\	2.cc\
.	.	4d\	4b\
.	.	2e\	2cc\
=55	=55	=55	=55
1r	0.r	2d\	2b\
.	.	2c\	2a/
1r	.	2e\	2cc\
.	.	4d\	4b\
.	.	4c\	4a/
2r	.	2B\	2g/
[2A\	.	2A/	[2cc\
=56	=56	=56	=56
4A\]	0.r	1e	4cc\]
4G\	.	.	4b\
2A\	.	.	2cc\
2G\	.	2e\	2b\
2F\	.	1f	2a/
2A\	.	.	2cc\
4G\	.	2d\	4b\
4F\	.	.	4a/
=57	=57	=57	=57
1E	0.r	1e	4g/
.	.	.	4a/
.	.	.	4b\
.	.	.	4cc\
4D\	.	1r	1dd
4E\	.	.	.
4F\	.	.	.
4G\	.	.	.
[1A	.	4A/	[1cc
.	.	4B\	.
.	.	4c\	.
.	.	4d\	.
=58	=58	=58	=58
2A\]	0.r	2.e\	2cc\]
4G\	.	.	4b\
4F\	.	4f\	4a/
2A\	.	2.e\	2cc\
2G\	.	.	1b
.	.	4d\	.
1A	.	2c\	.
.	.	2A/	[2a/
=59	=59	=59	=59
1E	0.r	1B	2a/]
.	.	.	2g#i/
0AAl	.	0Al	0al
!!LO:LB:i:g=z
=60||	=60||	=60||	=60||
*>C	*>C	*>C	*>C
*clefF4	*clefGv2	*clefGv2	*clefG2
*k[]	*k[]	*k[]	*k[]
*M2/1	*M2/1	*M2/1	*M2/1
*met(C|)	*met(C|)	*met(C|)	*met(C|)
!!section: Osanna
!!!OMD: Osanna
[0A	[0c	0e	[0a
=61	=61	=61	=61
0A]	0c_	1e	1a]
.	.	[1a	1e
=62	=62	=62	=62
1A	0c]	1a]	0e
1E	.	[1g	.
=63	=63	=63	=63
[0E	[0B	1g]	1e
.	.	1e	[1g
=64	=64	=64	=64
1E]	0B_	1.g	2g/]
.	.	.	4f/
.	.	.	4e/
[1G	.	.	2d/
.	.	4f\	[2g/
.	.	4e\	.
=65	=65	=65	=65
2G\]	0B]	2d\	4g/]
.	.	.	4a/
4F\	.	1g	4b\
4E\	.	.	4cc\
1D	.	.	1dd
.	.	2f\	.
=66	=66	=66	=66
1.C	[0c	1.e	0g
2D\	.	2f\	.
=67	=67	=67	=67
2E\	0c_	1g	1g
2C/	.	.	.
[1F	.	2.f\	1a
.	.	4g\	.
=68	=68	=68	=68
2F\]	0c]	2a\	2a/
2G\	.	1g	1cc
1A	.	.	.
.	.	2f\	4b\
.	.	.	4a/
=69	=69	=69	=69
1G	1d	1g	1b
1A	1c	1e	1a
=70	=70	=70	=70
0D	0d	1.f	2a/
.	.	.	1dd
.	.	4e\	4cc\
.	.	4d\	4b\
=71	=71	=71	=71
1A	1e	1c	1cc
1D	1d	1f	1dd
=72	=72	=72	=72
1G	0e	0g	1b
1E	.	.	[1ee
=73	=73	=73	=73
1r	0f	1r	2ee\]
.	.	.	4dd\
.	.	.	4cc\
1B	.	1d	1dd
=74	=74	=74	=74
1.c	[0e	2e\	0g
.	.	2.c\	.
.	.	4d\	.
4B\	.	4e\	.
4A\	.	4f\	.
=75	=75	=75	=75
2G\	0e]	2g\	1r
2F\	.	2.a\	.
1E	.	.	1b
.	.	4f\	.
.	.	2g\	.
=76	=76	=76	=76
0r	1.e	0c	1.cc
.	4d\	.	4b\
.	4c\	.	4a/
=77	=77	=77	=77
1r	2B\	1d	2g/
.	2A/	.	1a
1E	1B	1e	.
.	.	.	2g/
=78	=78	=78	=78
1.F	0A	1c	1.a
.	.	4c\	.
.	.	4d\	.
4E\	.	4e\	4g/
4D\	.	4f\	4f/
=79	=79	=79	=79
2C/	1c	2g\	2e/
2F\	.	2.f\	1a
2D\	1d	.	.
.	.	4e\	.
[2G\	.	2d\	[2b\
=80	=80	=80	=80
2G\]	1.e	1.g	2b\]
2E\	.	.	2g/
1E	.	.	1g
.	2B\	4f\	.
.	.	4e\	.
=81	=81	=81	=81
2r	1B	2d\	2r
2E\	.	1e	1g
2C/	2r	.	.
2F\	2c\	2c\	[2a/
=82	=82	=82	=82
2D\	1d	2f\	2a/]
2G\	.	2d\	2b\
2E\	2e\	2g\	2g/
[2F\	2c\	[2f\	[2a/
=83	=83	=83	=83
4F\]	1d	2f\]	2a/]
4E\	.	.	.
2D\	.	2f\	2b\
2C/	2e\	2g\	2cc\
[2F\	2c\	2f\	[2a/
=84	=84	=84	=84
4F\]	1d	0a	4a/]
4E\	.	.	4dd\
2D\	.	.	1dd
1A	1e	.	.
.	.	.	2cc#i\
=85	=85	=85	=85
1D	1d	1f	1dd
1G	1B	2d\	2dd\
.	.	[2g\	[2b\
=86	=86	=86	=86
2E\	1e	2g\]	2b\]
1A	.	1e	1cc
.	2c\	.	.
2F\	[2d\	[2f\	4b\
.	.	.	4a/
=87	=87	=87	=87
2G\	4d\]	2f\]	2b\
.	4B\	.	.
2E\	1B	2.e\	2g/
1F	.	.	1a
.	.	4d\	.
.	2A/	2d\	.
=88	=88	=88	=88
0E	1.B	1e	1g
.	.	2r	[1b
.	2c\	2e\	.
=89	=89	=89	=89
1.D	2.d\	2.f\	2b\]
.	.	.	2a/
.	4c\	4e\	.
.	2B\	2d\	[1a
2F\	2A/	2c\	.
=90	=90	=90	=90
0E	0B	[0el	1a]
.	.	.	1g#i
=91	=91	=91	=91
0AAl	0Al	0e]	0al
!!LO:LB:i:g=z
!!LO:TX:rj:i:t=fine
=92||	=92||	=92||	=92||
*>D	*>D	*>D	*>D
*clefF4	*clefGv2	*clefGv2	*clefG2
*k[]	*k[]	*k[]	*k[]
*M2/1	*M2/1	*M2/1	*M2/1
*met(C|)	*met(C|)	*met(C|)	*met(C|)
!!section: Benedictus
!!!OMD: Benedictus
[0A	1A	0r	0r
.	2.c\	.	.
.	4d\	.	.
=93	=93	=93	=93
0A]	2e\	0r	0r
.	1f	.	.
.	[2e\	.	.
=94	=94	=94	=94
0B	2e\]	0r	0r
.	4d\	.	.
.	4c\	.	.
.	1d	.	.
=95	=95	=95	=95
[0A	[0c	0r	1a
.	.	.	2.cc\
.	.	.	4dd\
=96	=96	=96	=96
0A]	0c]	1A	2ee\
.	.	.	1ff
.	.	2.c\	.
.	.	.	[2ee\
.	.	4d\	.
=97	=97	=97	=97
0G	0r	2e\	2ee\]
.	.	2f\	4dd\
.	.	.	4cc\
.	.	2g\	1b
.	.	2e\	.
=98	=98	=98	=98
0F	0r	4f\	2a/
.	.	4e\	.
.	.	4d\	2.dd\
.	.	4c\	.
.	.	1d	.
.	.	.	4cc\
.	.	.	4b\
.	.	.	4a/
=99	=99	=99	=99
0E	[0e	2e\	[0g
.	.	4d\	.
.	.	4c\	.
.	.	1B	.
=100	=100	=100	=100
0C	0e]	2.c\	0g]
.	.	4B\	.
.	.	2G/	.
.	.	[2c\	.
=101	=101	=101	=101
0D	0f	2c\]	1r
.	.	4B\	.
.	.	4A/	.
.	.	1B	1dd
=102	=102	=102	=102
1C	[0e	1.c	1.ee
4C/	.	.	.
4D\	.	.	.
4E\	.	4B\	4dd\
4F\	.	4A/	4cc\
=103	=103	=103	=103
2G\	0e]	2.G/	2b\
2C/	.	.	2cc\
.	.	4A/	.
2G\	.	2B\	2b\
2E\	.	2c\	2g/
=104	=104	=104	=104
2G\	0d	1B	2b\
2D\	.	.	1a
2.F\	.	1A	.
.	.	.	4g/
4G\	.	.	4f/
=105	=105	=105	=105
0A	0c	1r	0e
.	.	1a	.
=106	=106	=106	=106
[0E	0B	[0g	[0ee
=107	=107	=107	=107
0E]	0G	0g]	0ee]
=108	=108	=108	=108
0D	0A	0f	0ff
=109	=109	=109	=109
2.E\	1B	1g	[0ee
4F\	.	.	.
2G\	2B\	[1e	.
[2A\	[2c\	.	.
=110	=110	=110	=110
2A\]	2c\]	1e]	0ee]
4G\	4B\	.	.
4F\	4A/	.	.
2G\	2B\	1e	.
2A\	2c\	.	.
=111	=111	=111	=111
2D\	1d	2f\	0dd
2.G\	.	2.d\	.
.	2B\	.	.
4F\	.	4e\	.
2D\	2d\	2f\	.
=112	=112	=112	=112
1A	2A/	1e	0cc
.	2.c\	.	.
1A	.	1f	.
.	4B\	.	.
.	2c\	.	.
=113	=113	=113	=113
1G	1d	0g	1b
1E	[1e	.	1g
=114	=114	=114	=114
1F	2e\]	1c	0a
.	2c\	.	.
1D	1d	1f	.
=115	=115	=115	=115
1E	2B\	[0el	[0g
.	2c\	.	.
2E\	2B\	.	.
[2C/	[2c\	.	.
=116	=116	=116	=116
2C/]	2c\]	0e_	0g]
2D\	4B\	.	.
.	4A/	.	.
1E	1B	.	.
=117	=117	=117	=117
0AAl	0Al	0e]	0al
!!LO:LB:i:g=z
=118||	=118||	=118||	=118||
*>E	*>E	*>E	*>E
*clefF4	*clefGv2	*clefGv2	*clefG2
*k[]	*k[]	*k[]	*k[]
*M2/1	*M2/1	*M2/1	*M2/1
*met(C|)	*met(C|)	*met(C|)	*met(C|)
!!section: In nomine
!!!OMD: In nomine
0r	0r	1A	0r
.	.	2B\	.
.	.	[2A/	.
=119	=119	=119	=119
0r	0r	2A/]	1a
.	.	1d	.
.	.	.	2b\
.	.	2c\	[2a/
=120	=120	=120	=120
0r	0r	1f	2a/]
.	.	.	1dd
.	.	1e	.
.	.	.	2cc\
=121	=121	=121	=121
0r	0r	2r	1ff
.	.	2.A/	.
.	.	.	1ee
.	.	4B\	.
.	.	2c\	.
=122	=122	=122	=122
0r	0r	2d\	2r
.	.	1c	2.a/
.	.	.	4b\
.	.	4B\	2cc\
.	.	4A/	.
=123	=123	=123	=123
0r	0r	2G/	2dd\
.	.	2.A/	1cc
.	.	4B\	.
.	.	4c\	4b\
.	.	4d\	4a/
=124	=124	=124	=124
0r	0r	2e\	2g/
.	.	2f\	2.a/
.	.	1d	.
.	.	.	4b\
.	.	.	4cc\
.	.	.	4dd\
=125	=125	=125	=125
0r	0r	2c\	2ee\
.	.	2.d\	2ff\
.	.	.	2.dd\
.	.	4c\	.
.	.	4B\	.
.	.	4A/	4cc\
=126	=126	=126	=126
0r	0r	2G/	4b\
.	.	.	4a/
.	.	2A/	1a
.	.	1B	.
.	.	.	2g#i/
=127	=127	=127	=127
0r	0r	1A	[0a
.	.	2r	.
.	.	2d\	.
=128	=128	=128	=128
0r	0r	2c\	0a]
.	.	2.f\	.
.	.	4e\	.
.	.	4d\	.
.	.	4c\	.
=129	=129	=129	=129
0r	0r	2d\	2r
.	.	2A/	2a/
.	.	2B\	2g/
.	.	[2A/	[2cc\
=130	=130	=130	=130
0r	0r	2A/]	4cc\]
.	.	.	4b\
.	.	2.c\	4a/
.	.	.	4g/
.	.	.	2a/
.	.	4B\	.
.	.	[2e\	2e/
=131	=131	=131	=131
0r	0r	2e\]	2f/
.	.	2d\	4e/
.	.	.	4d/
.	.	2e\	1c
.	.	[2g\	.
=132	=132	=132	=132
0r	0r	2g\]	2r
.	.	2e\	2g/
.	.	2f\	2a/
.	.	4e\	2b\
.	.	4d\	.
=133	=133	=133	=133
0r	0r	1c	1e
.	.	2d\	2f/
.	.	2e\	[2e/
=134	=134	=134	=134
0r	0r	1A	2e/]
.	.	.	2a/
.	.	2B\	2g/
.	.	[2A/	[2cc\
=135	=135	=135	=135
0r	0r	2A/]	2cc\]
.	.	2d\	4b\
.	.	.	4a/
.	.	2c\	2g/
.	.	[2f\	[2a/
=136	=136	=136	=136
0r	0r	4f\]	4a/]
.	.	4e\	4g/
.	.	1e	4f/
.	.	.	4e/
.	.	.	1f
.	.	2d\	.
=137	=137	=137	=137
0r	0r	0e	1e
.	.	.	2r
.	.	.	[2g/
=138	=138	=138	=138
0r	0r	2r	2g/]
.	.	1e	4e/
.	.	.	4f/
.	.	.	2g/
.	.	2f\	[2a/
=139	=139	=139	=139
0r	0r	4d\	2a/]
.	.	4e\	.
.	.	2f\	2a/
.	.	1g	2b\
.	.	.	4g/
.	.	.	4a/
=140	=140	=140	=140
0r	0r	2g\	2b\
.	.	2a\	1cc
.	.	4f\	.
.	.	4g\	.
.	.	2a\	2cc\
=141	=141	=141	=141
0r	0r	1d	2dd\
.	.	.	4b\
.	.	.	4cc\
.	.	2d\	2dd\
.	.	2e\	[2g/
=142	=142	=142	=142
0r	0r	4c\	2g/]
.	.	4d\	.
.	.	2e\	2g/
.	.	1A	2a/
.	.	.	[2cc\
=143	=143	=143	=143
0r	0r	[0e	2cc\]
.	.	.	2b\
.	.	.	2cc\
.	.	.	[2b\
=144	=144	=144	=144
0r	0r	0e]	4b\]
.	.	.	4a/
.	.	.	4g/
.	.	.	4f/
.	.	.	1e
=145	=145	=145	=145
0r	0r	2r	2r
.	.	1e	1cc
.	.	4c\	4a/
.	.	4d\	4b\
=146	=146	=146	=146
0r	0r	2e\	2cc\
.	.	2.d\	2.b\
.	.	4c\	4a/
.	.	4B\	4g/
.	.	4A/	4f/
=147	=147	=147	=147
0r	0r	2G/	2e/
.	.	2A/	1a
.	.	1B	.
.	.	.	2g#i/
=148	=148	=148	=148
0r	0r	0Al	0al
!!LO:TX:Y=40:rj:t=[Osanna ut supra]
=||	=||	=||	=||
*-	*-	*-	*-
!!!RDF**kern: l=long note in original notation
!!!RDF**kern: i=editorial accidental
!!!ENC:	Chris Gage 01-11-2013
!!!END:	2013/07/16/
!!!EED:	Jesse Rodin
!!!EEV:	2013/07/19/
!!!ONB:	Translated from MusicXML and edited on 2013/07/19/ by Craig Sapp
!!muse2ps: T^@{OPR}^u^@{ONM}{. }@{OTL}^C^@{COM}^i2I150v85,85,85,150Q16
